images/food_icon_01.svg

<svg fill="none" height="51" viewBox="0 0 50 51" width="50" xmlns="http://www.w3.org/2000/svg"><g stroke="#8f00ff" stroke-width="2"><path d="m43.75 25.2344c0 4.9728-1.9754 9.7419-5.4917 13.2582-3.5164 3.5163-8.2855 5.4918-13.2583 5.4918s-9.7419-1.9755-13.2583-5.4918c-3.51626-3.5163-5.4917-8.2854-5.4917-13.2582s1.97544-9.742 5.4918-13.2583c3.5163-3.51629 8.2854-5.49173 13.2582-5.49173s9.7419 1.97545 13.2583 5.49173c3.5163 3.5163 5.4917 8.2855 5.4917 13.2583z"/><path d="m43.75 25.2344c0 4.9728-1.9754 9.7419-5.4917 13.2582-3.5164 3.5163-8.2855 5.4918-13.2583 5.4918s-9.7419-1.9755-13.2583-5.4918c-3.51626-3.5163-5.4917-8.2854-5.4917-13.2582s1.97544-9.742 5.4918-13.2583c3.5163-3.51629 8.2854-5.49173 13.2582-5.49173s9.7419 1.97545 13.2583 5.49173c3.5163 3.5163 5.4917 8.2855 5.4917 13.2583z"/><path d="m18.75 32.5254 6.25 4.1667 6.25-4.1667"/><path d="m18.75 25.2344 6.25 4.1666 6.25-4.1666"/><path d="m18.75 17.9434 6.25 4.1666 6.25-4.1666"/></g><path d="m27.0827 15.4518-2.0834 1.4492-2.0833-1.4492 2.0833-2.7174z" fill="#8f00ff"/></svg>

<svg width="50" height="51" viewBox="0 0 50 51" fill="none" xmlns="http://www.w3.org/2000/svg">
<path d="M43.75 25.2344C43.75 30.2072 41.7746 34.9763 38.2583 38.4926C34.7419 42.0089 29.9728 43.9844 25 43.9844C20.0272 43.9844 15.2581 42.0089 11.7417 38.4926C8.22544 34.9763 6.25 30.2072 6.25 25.2344C6.25 20.2616 8.22544 15.4924 11.7418 11.9761C15.2581 8.45982 20.0272 6.48438 25 6.48438C29.9728 6.48438 34.7419 8.45982 38.2583 11.9761C41.7746 15.4924 43.75 20.2616 43.75 25.2344L43.75 25.2344Z" stroke="#8F00FF" stroke-width="2"/>
<path d="M43.75 25.2344C43.75 30.2072 41.7746 34.9763 38.2583 38.4926C34.7419 42.0089 29.9728 43.9844 25 43.9844C20.0272 43.9844 15.2581 42.0089 11.7417 38.4926C8.22544 34.9763 6.25 30.2072 6.25 25.2344C6.25 20.2616 8.22544 15.4924 11.7418 11.9761C15.2581 8.45982 20.0272 6.48438 25 6.48438C29.9728 6.48438 34.7419 8.45982 38.2583 11.9761C41.7746 15.4924 43.75 20.2616 43.75 25.2344L43.75 25.2344Z" stroke="#8F00FF" stroke-width="2"/>
<path d="M18.75 31.4844L25 35.651L31.25 31.4844" stroke="#8F00FF" stroke-width="2"/>
<path d="M18.75 25.2344L25 29.401L31.25 25.2344" stroke="#8F00FF" stroke-width="2"/>
<path d="M18.75 18.9844L25 23.151L31.25 18.9844" stroke="#8F00FF" stroke-width="2"/>
<path d="M24.9997 14.8177L26.0413 16.2066L24.9997 16.9011L23.958 16.2066L24.9997 14.8177Z" stroke="#8F00FF" stroke-width="2"/>
</svg>
